X:322
M:C|
L:1/8
K:A
|:e/f/g ac BABc|e/f/g ae f/f/f f2|1 e/f/g ac BABc|AFEF A/A/A A2:|2
efec BABc|AFEF A/A/A A2||

